assets/gcpautomltranslation/original.svg

<svg height="24" width="24" xmlns="http://www.w3.org/2000/svg"><path d="m15 10.32h.16v-1h-2.66v-1.14h-1.1v1.14h-2.58v1z" fill="#669df6"/><path d="m15.33 14.75a6.8 6.8 0 0 1 -2.53-1.27 6.4 6.4 0 0 0 1.2-2.07h-1.19a5 5 0 0 1 -.81 1.31 4.8 4.8 0 0 1 -.81-1.31h-1.19a8.4 8.4 0 0 0 1.27 2.08 6.6 6.6 0 0 1 -2.6 1.38l.6 1a8.4 8.4 0 0 0 2.73-1.6 6.7 6.7 0 0 0 2.75 1.53z" fill="#aecbfa"/><path d="m6.82 19.46.95 1.65h9.49l4.74-8.22-1.9-3.29-4.74 8.21h-7.59zm10.36-14.92-.95-1.65h-9.49l-4.74 8.22 1.9 3.29 4.74-8.21h7.59z" fill="#4285f4"/></svg>

<svg xmlns="http://www.w3.org/2000/svg" width="24" height="24"><path fill="#669df6" d="M15 10.32h.16v-1H12.5V8.18h-1.1v1.14H8.82v1z"/><path fill="#aecbfa" d="M15.33 14.75a6.8 6.8 0 0 1-2.53-1.27 6.4 6.4 0 0 0 1.2-2.07h-1.19a5 5 0 0 1-.81 1.31 4.8 4.8 0 0 1-.81-1.31H10a8.4 8.4 0 0 0 1.27 2.08 6.6 6.6 0 0 1-2.6 1.38l.6 1a8.4 8.4 0 0 0 2.73-1.6 6.7 6.7 0 0 0 2.75 1.53z"/><path fill="#4285f4" d="m6.82 19.46.95 1.65h9.49L22 12.89 20.1 9.6l-4.74 8.21H7.77zM17.18 4.54l-.95-1.65H6.74L2 11.11l1.9 3.29 4.74-8.21h7.59z"/></svg>
